X:1
T:Körepolska
T:(DAL Ingemar Ingers)
T:efter Ture Larsson
R:Körepolska
O:Åkarp, Skåne
B:Dialekt- och Ortnamnarkivet Lund
N:Jämför med Der Hammerschmiedssohn
Z:Åke Persson 2012-03-19
M:3/4
L:1/8
K:D
A, |: DE F2 FG | EF D2 D d | dd B2 GB |1 dB A2 zA, :|2 dB A2 zd |]
|: dB G2 GB | BA D2 FA | AG A,2 CD |1 EF D2 zd :|2 EF D2 z2 |]

